X: 4797
T:Happy to meet and sorry to part
M:6/8
L:1/8
S:Seamus Ennis
K:G
f|edB BAB|GEF G2A|BAB def|g3 agf|!
edB BAB|GEF G2A|BAB def|e3 e2:|!
f|g3 fed|Bdd def|g3 fed|Bee e2f|!
g3 fed|Bdd def|gfg eag|1fef g2d:|2fef g2|
